lib/functional/design/squares-four.svg

<svg xmlns="http://www.w3.org/2000/svg" fill="none" stroke="currentColor" aria-hidden="true" viewBox="0 0 32 32"><path stroke-linecap="round" stroke-linejoin="round" stroke-width="2" d="M14 6H6v8h8V6Zm12 0h-8v8h8V6ZM14 18H6v8h8v-8Zm12 0h-8v8h8v-8Z"/></svg>

<svg xmlns="http://www.w3.org/2000/svg" fill="none" stroke="currentColor" aria-hidden="true" viewBox="0 0 32 32"><g id="Icon-SquaresFour"><g clip-path="url(#clip0_8_107)"><g id="size=md (32px)"><g id="SquaresFour"><path id="Vector" stroke-linecap="round" stroke-linejoin="round" stroke-width="2" d="M14 6H6V14H14V6Z"/><path id="Vector_2" stroke-linecap="round" stroke-linejoin="round" stroke-width="2" d="M26 6H18V14H26V6Z"/><path id="Vector_3" stroke-linecap="round" stroke-linejoin="round" stroke-width="2" d="M14 18H6V26H14V18Z"/><path id="Vector_4" stroke-linecap="round" stroke-linejoin="round" stroke-width="2" d="M26 18H18V26H26V18Z"/></g></g></g></g><defs><clipPath id="clip0_8_107"><rect width="32" height="32" fill="white" rx="5"/></clipPath></defs></svg>
